icons/solid/support.svg

<svg width="24" height="24" viewBox="0 0 24 24" fill="none" xmlns="http://www.w3.org/2000/svg">
<path fill-rule="evenodd" clip-rule="evenodd" d="M5.67028 4.25786C7.3943 2.84669 9.59827 2 12 2C14.4017 2 16.6057 2.84669 18.3297 4.25786C18.3172 4.26917 18.3049 4.28084 18.2929 4.29289L14.7574 7.8284C13.967 7.30488 13.0191 7 12 7C10.9809 7 10.033 7.30488 9.24261 7.8284L5.70711 4.29289C5.69506 4.28084 5.68278 4.26917 5.67028 4.25786ZM4.25786 5.67028C2.84669 7.3943 2 9.59827 2 12C2 14.4017 2.84669 16.6057 4.25786 18.3297C4.26917 18.3172 4.28084 18.3049 4.29289 18.2929L7.8284 14.7574C7.30488 13.967 7 13.0191 7 12C7 10.9809 7.30488 10.033 7.8284 9.24261L4.29289 5.70711C4.28084 5.69506 4.26917 5.68278 4.25786 5.67028ZM5.67028 19.7421C7.3943 21.1533 9.59827 22 12 22C14.4017 22 16.6057 21.1533 18.3297 19.7421C18.3172 19.7308 18.3049 19.7192 18.2929 19.7071L14.7574 16.1716C13.967 16.6951 13.0191 17 12 17C10.9809 17 10.033 16.6951 9.24261 16.1716L5.70711 19.7071C5.69506 19.7192 5.68278 19.7308 5.67028 19.7421ZM19.7421 18.3297C21.1533 16.6057 22 14.4017 22 12C22 9.59827 21.1533 7.3943 19.7421 5.67028C19.7308 5.68278 19.7192 5.69506 19.7071 5.70711L16.1716 9.24261C16.6951 10.033 17 10.9809 17 12C17 13.0191 16.6951 13.967 16.1716 14.7574L19.7071 18.2929C19.7192 18.3049 19.7308 18.3172 19.7421 18.3297Z" fill="currentColor"/>
<circle cx="12" cy="12" r="3" fill="currentColor"/>
</svg>

<svg width="24" height="24" fill="none" xmlns="http://www.w3.org/2000/svg"><path fill-rule="evenodd" clip-rule="evenodd" d="M5.67 4.258A9.959 9.959 0 0112 2c2.402 0 4.606.847 6.33 2.258a.977.977 0 00-.037.035l-3.536 3.535A4.977 4.977 0 0012 7c-1.02 0-1.967.305-2.757.828L5.707 4.293a1.018 1.018 0 00-.037-.035zM4.258 5.67A9.959 9.959 0 002 12c0 2.402.847 4.606 2.258 6.33a.977.977 0 01.035-.037l3.535-3.536A4.977 4.977 0 017 12c0-1.02.305-1.967.828-2.757L4.293 5.707a1.018 1.018 0 01-.035-.037zM5.67 19.742A9.959 9.959 0 0012 22a9.959 9.959 0 006.33-2.258.93.93 0 01-.037-.035l-3.536-3.535A4.977 4.977 0 0112 17a4.977 4.977 0 01-2.757-.828l-3.536 3.535a.967.967 0 01-.037.035zm14.072-1.412A9.959 9.959 0 0022 12a9.959 9.959 0 00-2.258-6.33.967.967 0 01-.035.037l-3.535 3.536c.523.79.828 1.738.828 2.757 0 1.02-.305 1.967-.828 2.757l3.535 3.536a.93.93 0 01.035.037z" fill="currentColor"/><circle cx="12" cy="12" r="3" fill="currentColor"/></svg>
